X:24
%%etbk:tnset id:9,pos:1,rep:3x,ant:
%%etbk:wsite http://www.thesession.org/tunes/display/1474
%%etbk:pldat 2016-09-09T18:08,2016-07-25T18:25,2015-12-16T16:30,2015-12-06T14:22,2015-11-29T14:00,2015-11-24T18:22,2015-03-24T15:43,2015-01-28T17:18,2015-01-27T16:15,2014-09-25T18:20,2014-05-21T19:00,2014-04-09T16:29,2014-03-27T18:27,2014-03-13T18:39,2014-03-01T17:09,2014-02-15T15:53,2014-02-13T18:08,2014-02-08T15:00,2014-02-07T15:22,2013-12-11T17:10,2013-11-20T15:10
T: Concert, The
Z: Piano Box Version by Martin Fleischmann
H: Created 2013-02-19 /  Last Modified 2013-02-19
M: 4/4
L: 1/8
R: reel
K: Ador
|: !3!A3B A!1!E !3!(3E!2!E!1!E | !2!GABG !3!A2!1!AB | !4!dB!1!A!2!B !1!G2!1!G!2!B | !4!d2!5!e!2!B !4!dB!1!A!2!B |
!2!B!1!A!2!G!4!B !3!A!1!E !3!(3E!2!E!1!E | !2!GAB!2!G !1!A2!2!B!4!d | !2!e2!5!af !4!ge!1!d!2!B | !1!G!2!B!4!d!2!B !2!B!1!AA2:|
|: !2!e!5!aa!4!g eaag | !2!edef !4!ge!1!d!2!B | !1!d!2!e!3!g!5!b !4!aaga | !5!bgab !3!g!2!e!1!d2 |
!2!e!5!aag eaag | !2!e!1!e!2!ef !4!gede | !4![g3d]e !1!dege | !1!d!2!B!1!G!2!B !2!B!1!AA2:||


